svg/u1f390.svg

<svg viewBox="0 0 128 128" xmlns="http://www.w3.org/2000/svg">
  <path d="M30.68,110.12l-8.97,5.19c0,0-0.47,2.48,0.47,2.83s3.89,0.71,10.26,2.24 c6.37,1.53,11.26,4.36,11.96,4.11c1.27-0.44,2.43-5.17,10.1-10.13c6.16-3.98,15.81-6.84,20.64-11.68 c4.84-4.84,7.31-10.97,7.55-15.45c0.24-4.48,0.94-6.45-1.38-6.54c-0.3-0.01-1.06,0.04-1.24,0.07c-2.36,0.47-4.34,4.34-4.34,4.34 L30.68,110.12z" fill="#A7D0D7"/>
  <path d="M62.53,81.57c-0.59,0.59-0.48,7.11-5.9,11.44c-5.9,4.72-18.17,7.9-25.84,12.5 c-7.32,4.39-9.08,9.79-9.08,9.79s7.55,0.35,11.68,1.65s10.15,3.78,10.15,3.78s3.78-6.72,11.09-10.74 c7.31-4.01,15.45-5.43,20.76-12.74c5.31-7.31,4.72-16.52,4.72-16.52L62.53,81.57z" fill="#DBEFF5"/>
  <path d="M70.91,87.59c1.54,0.31,2.6-0.59,2.71-2.83c0.12-2.24,0.12-12.62,0.12-12.62l-3.66,0.24 c0,0-0.12,9.56-0.35,11.44C69.49,85.7,69.14,87.24,70.91,87.59z" fill="#6BA4AE"/>
  <path d="M65.21,96.49c1.32,0.42,2.58-0.18,2.94-1.44c0.36-1.26-0.36-2.28-1.5-2.52s-2.28,0.42-2.58,1.68 C63.77,95.47,64.51,96.27,65.21,96.49z" fill="#A7D0D7"/>
  <path d="M58.08,98.77c-0.84-0.53-2.28-0.66-3.29,0.12c-1.02,0.78-1.02,1.94-0.18,2.52 c0.78,0.54,2.28,0.42,3.06-0.12C58.44,100.74,59.22,99.49,58.08,98.77z" fill="#A7D0D7"/>
  <path d="M45.98,103.62c-1.62,0-2.64,0.9-2.7,1.92c-0.06,1.02,1.26,1.92,2.52,1.8 c1.2-0.12,2.52-0.54,2.52-1.98C48.32,104.4,47.18,103.62,45.98,103.62z" fill="#A7D0D7"/>
  <radialGradient id="SVGID_1_" cx="68.1612" cy="0.391" gradientUnits="userSpaceOnUse" r="68.2813">
    <stop offset="0.6873" stop-color="#82D8FF"/>
    <stop offset="0.7349" stop-color="#7BD7FE"/>
    <stop offset="0.8047" stop-color="#67D3FC"/>
    <stop offset="0.8879" stop-color="#47CCF7"/>
    <stop offset="0.9466" stop-color="#2CC7F4"/>
  </radialGradient>
  <path d="M42.28,71.82c4.45,3.93,12.82,6.13,30.04,5.02c18.54-1.2,27.51-10.76,28.63-12.11 c0.83-1,8.04-14.56,2.95-30.38C99.05,19.24,84.66,8.58,65.26,10.02c-18.9,1.39-30.1,16.16-32.44,26.71 C28.21,57.56,40.59,70.33,42.28,71.82z" fill="url(#SVGID_1_)"/>
  <path d="M64.66,14.44l-3.86,0.65c0,0,3.38,8.17,6.32,27.45C70.02,61.63,70,76.96,70,76.96 s0.77-0.04,1.81-0.08c1.07-0.04,1.92-0.15,1.92-0.15s-0.56-20.56-2.92-35.9C68.2,23.8,64.66,14.44,64.66,14.44z" fill="#00BFED"/>
  <path d="M59.05,11.03c0,0-2.09,1.98-1.76,3.19c0.33,1.21,3.08,5.39,4.4,5.61c1.32,0.22,6.05-3.85,6.27-5.72 s-4.29-3.74-4.29-3.74s-1.98-5.28-2.42-6.16s-1.54-1.54-2.64-1.32c-1.26,0.25-1.54,1.9-1.32,2.42 C57.95,6.85,59.05,11.03,59.05,11.03z" fill="#69A6AE"/>
  <path d="M54.73,18.27c-1.22-1.12-6.37-1.42-13.23,9.91s-5.67,19.74-2.69,19.67 c3.26-0.07,2.26-7.53,4.81-12.74c3.54-7.22,9.55-12.1,10.83-13.59C55.73,20.04,55.58,19.05,54.73,18.27z" fill="#FBFFFF"/>
  <path d="M95.19,35.18c0.14-2.02-2.1-4.42-5.45-3.31c0.05-0.08,0.11-0.15,0.16-0.22 c1.29-2.21,1.2-6.16-1.84-7.41c-1.77-0.73-5.57,0.61-5.63,4.83c-0.22-0.36-0.45-0.68-0.66-0.95c-1.77-2.19-5.45-3.47-7.71-0.85 c-1.41,1.63-1.1,6.27,3.35,7.72c-0.13,0.04-0.26,0.08-0.37,0.13c-2.42,1.02-4.24,4.07-2.64,6.88c1.05,1.83,5.54,2.68,8.01-0.93 c0.03-0.05,0.05-0.1,0.08-0.15c0,0.12-0.01,0.25-0.01,0.36c-0.01,2.5,1.89,5.25,4.95,4.88c2.28-0.28,4.9-3.23,2.29-7.04 c0.06,0.01,0.13,0.03,0.19,0.03C92.27,39.43,94.99,38.1,95.19,35.18z M84.81,36.6c-0.77,0.26-1.33,0.72-1.68,1.43 c-0.07-0.75-0.31-1.48-0.72-2.07c-0.28-0.4-0.65-0.69-1.07-0.9c0.69-0.23,1.28-0.58,1.63-1.08c0.28-0.4,0.43-0.84,0.48-1.29 c0.35,0.46,0.78,0.82,1.29,1.01c0.51,0.2,1.01,0.26,1.5,0.23c-0.33,0.38-0.43,0.79-0.46,1.41c-0.02,0.44,0.27,1.11,0.69,1.55 C86.01,36.68,85.34,36.42,84.81,36.6z" fill="#FFDCE8"/>
  <path d="M63.4,55.1c-1.06-0.83-2.11-1.19-3.11-1.15c0.43-0.33,0.77-0.72,0.98-1.12 c0.95-1.82,0.25-3.93-1.08-4.84c-1.32-0.91-4.05-1.08-5.29,1.16c-0.2,0.37-0.36,0.82-0.45,1.31c-0.41-0.61-1.07-1.13-2.07-1.43 c-2.71-0.81-4.14,0.79-4.88,2.11c-1.02,1.81-0.37,4.63,2.11,5.54c0.47,0.17,0.92,0.25,1.35,0.27c-2.02,1.85-1.48,3.93-0.87,5.2 c0.84,1.75,3.25,2.48,5.41,0.99c1.55-1.07,2.06-2.59,2.06-3.9c0.29,0.41,0.73,1.11,1.28,1.4c2.23,1.14,4.49,0.04,5.25-1.14 C64.72,58.49,64.82,56.22,63.4,55.1z M57.44,55.27c-0.29,0.37-0.53,0.84-0.58,1.55c-0.48-0.58-1.5-1.18-2.75-1.2 c0.34-0.37,0.58-0.77,0.7-1.14c0.16-0.48,0.31-0.79,0.25-1.49c0.28,0.37,0.64,0.84,1.44,1.24c0.58,0.29,1.26,0.36,1.85,0.25 C58.01,54.59,57.73,54.91,57.44,55.27z" fill="#FFDCE8"/>
</svg>

<svg viewBox="0 0 128 128" xmlns="http://www.w3.org/2000/svg">
  <defs>
    <radialGradient id="SVGID_1_" cx="68.1612" cy="0.391" gradientUnits="userSpaceOnUse" r="68.2813">
      <stop offset="0.6873" stop-color="#82D8FF"/>
      <stop offset="0.7349" stop-color="#7BD7FE"/>
      <stop offset="0.8047" stop-color="#67D3FC"/>
      <stop offset="0.8879" stop-color="#47CCF7"/>
      <stop offset="0.9466" stop-color="#2CC7F4"/>
    </radialGradient>
  </defs>
  <path d="M30.68,110.12 L21.71,115.31 C21.71,115.31 21.24,117.79 22.18,118.14 C23.12,118.49 26.07,118.85 32.44,120.38 C38.81,121.91 43.7,124.74 44.4,124.49 C45.67,124.05 46.83,119.32 54.5,114.36 C60.66,110.38 70.31,107.52 75.14,102.68 C79.98,97.84 82.45,91.71 82.69,87.23 C82.93,82.75 83.63,80.78 81.31,80.69 C81.01,80.68 80.25,80.73 80.07,80.76 C77.71,81.23 75.73,85.1 75.73,85.1 L30.68,110.12 Z" fill="#A7D0D7"/>
  <path d="M62.53,81.57 C61.94,82.16 62.05,88.68 56.63,93.01 C50.73,97.73 38.46,100.91 30.79,105.51 C23.47,109.9 21.71,115.3 21.71,115.3 C21.71,115.3 29.26,115.65 33.39,116.95 C37.52,118.25 43.54,120.73 43.54,120.73 C43.54,120.73 47.32,114.01 54.63,109.99 C61.94,105.98 70.08,104.56 75.39,97.25 C80.7,89.94 80.11,80.73 80.11,80.73 L62.53,81.57 Z" fill="#DBEFF5"/>
  <path d="M70.91,87.59 C72.45,87.9 73.51,87 73.62,84.76 C73.74,82.52 73.74,72.14 73.74,72.14 L70.08,72.38 C70.08,72.38 69.96,81.94 69.73,83.82 C69.49,85.7 69.14,87.24 70.91,87.59 Z" fill="#6BA4AE"/>
  <path d="M65.21,96.49 C66.53,96.91 67.79,96.31 68.15,95.05 C68.51,93.79 67.79,92.77 66.65,92.53 C65.51,92.29 64.37,92.95 64.07,94.21 C63.77,95.47 64.51,96.27 65.21,96.49 Z" fill="#A7D0D7"/>
  <path d="M58.08,98.77 C57.24,98.24 55.8,98.11 54.79,98.89 C53.77,99.67 53.77,100.83 54.61,101.41 C55.39,101.95 56.89,101.83 57.67,101.29 C58.44,100.74 59.22,99.49 58.08,98.77 Z" fill="#A7D0D7"/>
  <path d="M45.98,103.62 C44.36,103.62 43.34,104.52 43.28,105.54 C43.22,106.56 44.54,107.46 45.8,107.34 C47,107.22 48.32,106.8 48.32,105.36 C48.32,104.4 47.18,103.62 45.98,103.62 Z" fill="#A7D0D7"/>
  <path d="M42.28,71.82 C46.73,75.75 55.1,77.95 72.32,76.84 C90.86,75.64 99.83,66.08 100.95,64.73 C101.78,63.73 108.99,50.17 103.9,34.35 C99.05,19.24 84.66,8.58 65.26,10.02 C46.36,11.41 35.16,26.18 32.82,36.73 C28.21,57.56 40.59,70.33 42.28,71.82 Z" fill="url(#SVGID_1_)"/>
  <path d="M64.66,14.44 L60.8,15.09 C60.8,15.09 64.18,23.26 67.12,42.54 C70.02,61.63 70,76.96 70,76.96 C70,76.96 70.77,76.92 71.81,76.88 C72.88,76.84 73.73,76.73 73.73,76.73 C73.73,76.73 73.17,56.17 70.81,40.83 C68.2,23.8 64.66,14.44 64.66,14.44 Z" fill="#00BFED"/>
  <path d="M59.05,11.03 C59.05,11.03 56.96,13.01 57.29,14.22 C57.62,15.43 60.37,19.61 61.69,19.83 C63.01,20.05 67.74,15.98 67.96,14.11 C68.18,12.24 63.67,10.37 63.67,10.37 C63.67,10.37 61.69,5.09 61.25,4.21 C60.81,3.33 59.71,2.67 58.61,2.89 C57.35,3.14 57.07,4.79 57.29,5.31 C57.95,6.85 59.05,11.03 59.05,11.03 Z" fill="#69A6AE"/>
  <path d="M54.73,18.27 C53.51,17.15 48.36,16.85 41.5,28.18 C34.64,39.51 35.83,47.92 38.81,47.85 C42.07,47.78 41.07,40.32 43.62,35.11 C47.16,27.89 53.17,23.01 54.45,21.52 C55.73,20.04 55.58,19.05 54.73,18.27 Z" fill="#FBFFFF"/>
  <path d="M95.19,35.18 C95.33,33.16 93.09,30.76 89.74,31.87 C89.79,31.79 89.85,31.72 89.9,31.65 C91.19,29.44 91.1,25.49 88.06,24.24 C86.29,23.51 82.49,24.85 82.43,29.07 C82.21,28.71 81.98,28.39 81.77,28.12 C80,25.93 76.32,24.65 74.06,27.27 C72.65,28.9 72.96,33.54 77.41,34.99 C77.28,35.03 77.15,35.07 77.04,35.12 C74.62,36.14 72.8,39.19 74.4,42 C75.45,43.83 79.94,44.68 82.41,41.07 C82.44,41.02 82.46,40.97 82.49,40.92 C82.49,41.04 82.48,41.17 82.48,41.28 C82.47,43.78 84.37,46.53 87.43,46.16 C89.71,45.88 92.33,42.93 89.72,39.12 C89.78,39.13 89.85,39.15 89.91,39.15 C92.27,39.43 94.99,38.1 95.19,35.18 Z M84.81,36.6 C84.04,36.86 83.48,37.32 83.13,38.03 C83.06,37.28 82.82,36.55 82.41,35.96 C82.13,35.56 81.76,35.27 81.34,35.06 C82.03,34.83 82.62,34.48 82.97,33.98 C83.25,33.58 83.4,33.14 83.45,32.69 C83.8,33.15 84.23,33.51 84.74,33.7 C85.25,33.9 85.75,33.96 86.24,33.93 C85.91,34.31 85.81,34.72 85.78,35.34 C85.76,35.78 86.05,36.45 86.47,36.89 C86.01,36.68 85.34,36.42 84.81,36.6 Z" fill="#FFDCE8"/>
  <path d="M63.4,55.1 C62.34,54.27 61.29,53.91 60.29,53.95 C60.72,53.62 61.06,53.23 61.27,52.83 C62.22,51.01 61.52,48.9 60.19,47.99 C58.87,47.08 56.14,46.91 54.9,49.15 C54.7,49.52 54.54,49.97 54.45,50.46 C54.04,49.85 53.38,49.33 52.38,49.03 C49.67,48.22 48.24,49.82 47.5,51.14 C46.48,52.95 47.13,55.77 49.61,56.68 C50.08,56.85 50.53,56.93 50.96,56.95 C48.94,58.8 49.48,60.88 50.09,62.15 C50.93,63.9 53.34,64.63 55.5,63.14 C57.05,62.07 57.56,60.55 57.56,59.24 C57.85,59.65 58.29,60.35 58.84,60.64 C61.07,61.78 63.33,60.68 64.09,59.5 C64.72,58.49 64.82,56.22 63.4,55.1 Z M57.44,55.27 C57.15,55.64 56.91,56.11 56.86,56.82 C56.38,56.24 55.36,55.64 54.11,55.62 C54.45,55.25 54.69,54.85 54.81,54.48 C54.97,54 55.12,53.69 55.06,52.99 C55.34,53.36 55.7,53.83 56.5,54.23 C57.08,54.52 57.76,54.59 58.35,54.48 C58.01,54.59 57.73,54.91 57.44,55.27 Z" fill="#FFDCE8"/>
</svg>
